tools/download-figma-icons/icons/outlined-medium/battery-inactive.svg

<svg width="24" height="24" viewBox="0 0 24 24" fill="none" xmlns="http://www.w3.org/2000/svg">
<path fill-rule="evenodd" clip-rule="evenodd" d="M6.00114 4.5C6.00114 4.0875 6.33864 3.75 6.75114 3.75H9.00039V1.5H14.9996V3.75H17.0614L18.2981 2.5125C17.9839 2.3475 17.6314 2.25 17.2489 2.25H16.4989V1.5C16.4989 0.675 15.8246 0 14.9996 0H9.00039C8.17539 0 7.50114 0.675 7.50114 1.5V2.25H6.75114C5.51439 2.25 4.50114 3.2625 4.50114 4.5V16.3125L6.00114 14.8125V4.5ZM17.9989 21.75C17.9989 22.1625 17.6614 22.5 17.2489 22.5H6.75114C6.33864 22.5 6.00114 22.1625 6.00114 21.75V19.0575L17.9989 7.05753V21.75ZM21.5306 2.46748C21.2756 2.21248 20.8781 2.18248 20.5789 2.36998L20.5256 2.42248C20.5031 2.42998 20.4881 2.44498 20.4656 2.46748L19.3189 3.62248C19.2994 3.63673 2.46937 20.4675 2.46937 20.4675C2.17688 20.76 2.17688 21.24 2.46937 21.5325C2.61937 21.675 2.80688 21.75 3.00188 21.75C3.19688 21.75 3.38437 21.675 3.53437 21.5325L4.50112 20.5575V21.75C4.50112 22.9875 5.51437 24 6.75113 24H17.2489C18.4856 24 19.4981 22.9875 19.4981 21.75V5.55749L21.5306 3.53248C21.8231 3.23998 21.8231 2.75998 21.5306 2.46748Z" fill="black"/>
</svg>

<svg xmlns="http://www.w3.org/2000/svg" width="24" height="24" fill="none" viewBox="0 0 24 24"><path fill="currentColor" fill-rule="evenodd" d="M6.001 4.5c0-.412.338-.75.75-.75h2.25V1.5H15v2.25h2.061l1.237-1.237a2.24 2.24 0 0 0-1.05-.263h-.75V1.5A1.5 1.5 0 0 0 15 0H9c-.825 0-1.499.675-1.499 1.5v.75h-.75a2.257 2.257 0 0 0-2.25 2.25v11.813l1.5-1.5zM18 21.75c0 .413-.338.75-.75.75H6.75a.75.75 0 0 1-.75-.75v-2.692l12-12zm3.53-19.283a.77.77 0 0 0-.952-.097l-.053.052c-.023.008-.038.023-.06.045l-1.147 1.155c-.02.015-16.85 16.846-16.85 16.846a.756.756 0 0 0 0 1.064c.15.143.338.218.533.218a.77.77 0 0 0 .532-.218l.967-.974v1.192A2.257 2.257 0 0 0 6.751 24H17.25a2.256 2.256 0 0 0 2.25-2.25V5.557l2.032-2.025a.756.756 0 0 0 0-1.065" clip-rule="evenodd"/></svg>
